priv/static/svgs/icons_new/time-calendar-alternative.svg

<svg width="32" height="32" viewBox="0 0 32 32" fill="none" xmlns="http://www.w3.org/2000/svg">
<path d="M7 15C6.72386 15 6.5 15.2239 6.5 15.5C6.5 15.7761 6.72386 16 7 16V15ZM25 16C25.2761 16 25.5 15.7761 25.5 15.5C25.5 15.2239 25.2761 15 25 15V16ZM17 10.4999H17.5C17.5 10.3445 17.4277 10.1979 17.3044 10.1033C17.1811 10.0087 17.0208 9.97676 16.8706 10.017L17 10.4999ZM12.8706 11.0884C12.6039 11.1599 12.4456 11.434 12.517 11.7007C12.5885 11.9675 12.8626 12.1258 13.1294 12.0544L12.8706 11.0884ZM16.5 20.4999C16.5 20.7761 16.7238 20.9999 17 20.9999C17.2761 20.9999 17.5 20.7761 17.5 20.4999H16.5ZM11 7H21V6H11V7ZM24.5 10.5V20.5H25.5V10.5H24.5ZM21 24H11V25H21V24ZM7.5 20.5V10.5H6.5V20.5H7.5ZM11 24C9.067 24 7.5 22.433 7.5 20.5H6.5C6.5 22.9853 8.51472 25 11 25V24ZM24.5 20.5C24.5 22.433 22.933 24 21 24V25C23.4853 25 25.5 22.9853 25.5 20.5H24.5ZM21 7C22.933 7 24.5 8.567 24.5 10.5H25.5C25.5 8.01472 23.4853 6 21 6V7ZM11 6C8.51472 6 6.5 8.01472 6.5 10.5H7.5C7.5 8.567 9.067 7 11 7V6ZM7 16H25V15H7V16ZM16.8706 10.017L12.8706 11.0884L13.1294 12.0544L17.1294 10.9829L16.8706 10.017ZM16.5 10.4999V20.4999H17.5V10.4999H16.5Z" fill="black"/>
</svg>

<svg width="32" height="32" viewBox="0 0 32 32" fill="none" xmlns="http://www.w3.org/2000/svg">
  <symbol id="item" viewBox="0 0 32 32"  fill="none">
    <path d="M7 15a.5.5 0 0 0 0 1v-1Zm18 1a.5.5 0 0 0 0-1v1Zm-8-5.5h.5a.5.5 0 0 0-.63-.483l.13.483Zm-4.13.588a.5.5 0 0 0 .26.966l-.26-.966ZM16.5 20.5a.5.5 0 1 0 1 0h-1ZM11 7h10V6H11v1Zm13.5 3.5v10h1v-10h-1ZM21 24H11v1h10v-1ZM7.5 20.5v-10h-1v10h1ZM11 24a3.5 3.5 0 0 1-3.5-3.5h-1A4.5 4.5 0 0 0 11 25v-1Zm13.5-3.5A3.5 3.5 0 0 1 21 24v1a4.5 4.5 0 0 0 4.5-4.5h-1ZM21 7a3.5 3.5 0 0 1 3.5 3.5h1A4.5 4.5 0 0 0 21 6v1ZM11 6a4.5 4.5 0 0 0-4.5 4.5h1A3.5 3.5 0 0 1 11 7V6ZM7 16h18v-1H7v1Zm9.87-5.983-4 1.071.26.966 4-1.071-.26-.966Zm-.37.483v10h1v-10h-1Z" fill="currentColor"/>
  </symbol>
</svg>
